X:1
T:O come, ye servants - Tye
T:James Gibb editions
T:#
%%score [ 1 2 3 4 ]
L:1/8
Q:1/4=96
M:4/4
K:G
V:1 treble nm="S" snm="S"
V:2 treble nm="A" snm="A"
V:3 treble-8 nm="T" snm="T"
V:4 bass nm="B" snm="B"
V:1
"^O come, ye servants of the Lord\n(Laudate nomen Domini)""^Christopher Tye\n(1505-1572)"!p!"^repeat"!f! G2 | %1
w: Lau-|
w: O|
 G3 G A2 B2 | c3 c B2 B2 | c2 A2 B2 (AG) | F8 | z4 z2 G2 | A2 c2 B2 B2 | A2 G2 d2 B2 | %8
w: da- te no- men|Do- mi- ni, vos|ser- vi Do- mi\- *|ni,|ab|or- tu so- lis|us- que ad oc-|
w: come, ye ser- vants|of the Lord, and|praise his ho- ly *|name;|From|ear- ly morn to|set- ting sun his|
 A2 G2 (G2 F2) | G4 z2 |!p! D2 | E2 G2 F2 G2 | E3 E D2 c2 | B3 A G2 G2 | F8 | z8 | z4 z2!f! d2 | %17
w: ca- sum e\- *|jus.|De-|cre- ta De- i|jus- ta sunt, et|cor ex- hi- la-|rant.||Lau-|
w: might on earth pro-|claim.|His|laws are just, and|glad the heart; He|makes his mer- cies|known:||Ye|
 d3 c B4- | B2 G2 c2 c2 | B2 B2 e3 d | c2 d2 B4 :| %21
w: da- te De\-|* um, prin- ci-|pes et om- nes|po- pu- li.|
w: prin- ces come,|* ye peo- ple|too, and bow be-|fore his throne.|
V:2
!p! D2 | E3 E F2 F2 | G2 G2 G2 G2 | E2 F2 D2 E2 | D4 z4 | z2 D3 E G2 | F2 G2 G4 | F2 E2 z2 G2 | %8
w: Lau-|da- te no- men|Do- mi- ni, vos|ser- vi Do- mi-|ni,|ab or- tu|so- lis us-|que ad oc-|
w: O|come, ye ser- vants|of the Lord, and|praise his ho- ly|name;|From ear- ly|morn to set-|ting sun his|
 E2 E2 (D3 C) | B,4 z2 |!p! B,2 | C2 C2 D2 B,2 | B,2 A,2 B,2 G2 | G3 E D2 D2 | D4 z4 | %15
w: ca- sum e\- *|jus.|De-|cre- ta De- i|jus- ta sunt, et|cor ex- hi- la-|rant.|
w: might on earth pro-|claim.|His|laws are just, and|glad the heart; He|makes his mer- cies|known:|
 z4 z2!f! G2 | G3 F E2 G2 | (FG) F2 G2 D2 | G2 B2 AA G2 | G2 B2 A2 G2- | G(A F2) G4 :| %21
w: Lau-|da- te De- um,|prin\- * ci- pes et|om- nes po- pu- li,|et om- nes po\-|* pu\- * li.|
w: Ye|prin- ces come, ye|peo\- * ple too, and|bow be- fore his throne,|and bow be- fore|* ~his * throne.|
V:3
!p! B2 | B3 G d2 d2 | e2 e2 d2 d2 | c2 d2 B2 c2 | A2 A2 B2 d2 | c2 B2 A2 G2 | d2 e2 d4- | %7
w: Lau-|da- te no- men|Do- mi- ni, vos|ser- vi Do- mi-|ni, ab or- tu|so- lis, or- tu|so- lis us\-|
w: O|come, ye ser- vants|of the Lord, and|praise his ho- ly|name; From ear- ly|morn to set- ting|sun, to set\-|
 d2 B2 B2 G2 | c3 B A2- A2 | G4 z2 |!p! G2 | G2 G2 A2 G2 | G2 E2 G2 e2 | d3 c B2 B2 | A4 z2!f! d2 | %15
w: * que ad oc-|ca- sum e\- *|jus.|De-|cre- ta De- i|jus- ta sunt, et|cor ex- hi- la-|rant. Lau-|
w: * ting sun his|might on earth pro-|claim.|His|laws are just, and|glad the heart; He|makes his mer- cíes|known: Ye|
 d3 c B2 A2 | B4 E2 B2- | B2 A2 G4 | z2 B2 e3 e | d2 d2 A2 (e2- | e2 d2) d4 :| %21
w: da- te De- um,|De- um prin\-|* ci- pes|et om- nes|po- pu- li, po\-|* pu- li.|
w: prin- ces come, ye|peo- ple, peo\-|* ple too,|and bow be-|fore his throne, his|* * throne.|
V:4
!p! G,2 | E,3 E, D,2 D,2 | C,2 C,2 G,2 G,2 | A,2 F,2 G,2 C,2 | D,4 z2 D,2 | E,2 G,2 F,2 E,2 | %6
w: Lau-|da- te no- men|Do- mi- ni, vos|ser- vi Do- mi-|ni, ab|or- tu so- lis,|
w: O|come, ye ser- vants|of the Lord, and|praise his ho- ly|name; From|ear- ly morn to|
 D,2 C,2 G,2 G,2 | D,2 E,2 B,,2 E,2 | C,2 C,2 D,2- D,2 | G,,4 z2 |!p! G,,2 | C,2 E,2 D,2 E,2 | %12
w: or- tu so- lis|us- que ad oc-|ca- sum e\- *|jus.|De-|cre- ta De- i|
w: ear- ly morn to|set- ting sun his|might on earth pro-|claim.|His|laws are just, and|
 C,3 C, G,,2 C,2 | G,,3 A,, B,,2 G,,2 | D,8 | z2!f! G,2 G,3 F, | E,2 D,2 C,2 B,,2 | D,4 z2 B,,2 | %18
w: jus- ta sunt, et|cor ex- hi- la-|rant.|Lau- da- te|De- um prin- ci-|pes et|
w: glad the heart; He|makes his mer- cies|known:|Ye prin- ces|come, ye peo- ple|too, and|
 E,3 D, C,2 C,2 | G,,2 G,2 C3 B, | A,2 B,2 G,4 :| %21
w: om- nes po- pu-|li, et om- nes|po- pu- li.|
w: bow be- fore his|throne, and bow be-|fore his throne.|

